X: 287
T: Zorinski
%R: reel
Z: 2014 John Chambers <jc:trillian.mit.edu>
B: Preston "Twenty four Country Dances for the Year 1796" p.124 #1
F: http://www.vwml.org/browse/browse-collections-dance-tune-books/browse-prestons1796# 2014-8-10
M: C
L: 1/8
K: D
|:\
d3a fd2a | be2d cA2c |\
d3a fd2f | (ed)(ef) d2d2 :|
|:\
eAcA eAgA | fAdA fAaA |\
bg eb af da | bagf (f2e2) :|
% - - - - - - - - - - - - - - - - - - - - - - - - -
%%begintext align
%% Sett & half right & left the same back
%% again lead down the middle up again
%% cast off & Allemande.
%%endtext
% - - - - - - - - - - - - - - - - - - - - - - - - -

%%sep 1 1 500
%%sep 1 1 500
